X:1
T:Vincent, 84.84 D
T:Horatio Richmond Palmer, before 1898
T:Vincent, 84.84 D
T:Public Domain
C:Horatio Richmond Palmer, before 1898
Z:Public Domain
%%score ( 1 2 ) ( 3 4 )
L:1/8
M:4/4
K:Eb
V:1 treble 
V:2 treble 
V:3 bass 
V:4 bass 
V:1
 [EG]2 [EG]>[EG] [EA]2 [EG]2 | [DG]3 [DF] [CE]4 | [CE]4 [CE]2 [CF]2 | [DG]8 | %4
 [DB]2 [DB]>[DB] [Fc]2 [FB]2 | [EB]3 [DA] [EG]4 | [CF]4 C3 [CF] | [DF]8 | %8
 [DF]2 [EF]>[EF] (FB) [EB]2 | [DB]3 [Dc] [EB]4 | [DB]4 [Ec]3 [Ec] | ([Dd]4 [FB]4)!ff! | %12
 [Ee]2 [EG]>[EG] [EA]2 [EG]2 | [DG]3 [DF] [CE]4 | C4 [CE]3 [B,F] | [B,E]8 |] %16
V:2
 x8 | x8 | x8 | x8 | x8 | x8 | x4 C3 x | x8 | x4 F2 x2 | x8 | x8 | x8 | x8 | x8 | C4 x4 | x8 |] %16
V:3
 [E,B,]2 [E,B,]>[E,B,] [E,C]2 [E,B,]2 | [B,,B,]3 [=B,,A,] [C,G,]4 | [A,,A,]4 A,2 [A,C]2 | %3
 [G,=B,]8 | [F,B,]2 [F,B,]>[F,B,] [A,D]2 [A,D]2 | [G,E]3 [F,B,] [E,B,]4 | %6
 [A,,A,]4 [=A,,F,]3 [A,,F,] | [B,,F,]8 | [B,,F,]2 [C,=A,]>[C,A,] [D,B,]2 [E,G,]2 | %9
 [F,A,]3 [F,A,] [G,B,]4 | [F,B,]4 [F,=A,]3 [F,A,] | (B,4 [A,B,]4) | %12
 [G,B,]2 [E,B,]>[E,B,] [E,C]2 [E,B,]2 | [B,,B,]3 [=B,,A,] [C,G,]4 | [A,,A,]4 [C,A,]3 [D,A,] | %15
 [E,G,]8 |] %16
V:4
 x8 | x8 | x4 A,2 x2 | x8 | x8 | x8 | x8 | x8 | x8 | x8 | x8 | B,4 x4 | x8 | x8 | x8 | x8 |] %16

